icons/secure_communication.svg

<svg width="48" height="48" viewBox="0 0 48 48" fill="none" xmlns="http://www.w3.org/2000/svg">
<path fill-rule="evenodd" clip-rule="evenodd" d="M28 35H29.5C37.5081 35 44 28.5081 44 20.5C44 12.4919 37.5081 6 29.5 6H18.5C10.4919 6 4 12.4919 4 20.5C4 28.5081 9 37.5 25.5 41.5L28 42V35ZM26 39.5604V33H29.5C36.4036 33 42 27.4036 42 20.5C42 13.5964 36.4036 8 29.5 8H18.5C11.5964 8 6 13.5964 6 20.5C6 24.07 7.1056 27.8336 10.0613 31.1788C13.0276 34.536 17.9855 37.6142 25.9322 39.5468L26 39.5604Z" fill="black"/>
<path d="M19 18H29V27H19V18Z" fill="black"/>
<path fill-rule="evenodd" clip-rule="evenodd" d="M25.0673 14.7689C24.8413 14.5782 24.4703 14.4166 24 14.4166C23.5297 14.4166 23.1587 14.5782 22.9327 14.7689C22.711 14.956 22.6667 15.1263 22.6667 15.2291V17.9166H25.3333V15.2291C25.3333 15.1263 25.289 14.956 25.0673 14.7689ZM24 12.4166C25.841 12.4166 27.3333 13.6758 27.3333 15.2291V19.9166H20.6667V15.2291C20.6667 13.6758 22.159 12.4166 24 12.4166Z" fill="black"/>
</svg>

<svg
  xmlns="http://www.w3.org/2000/svg"
  width="24"
  height="24"
  viewBox="0 0 24 24"
  fill="none"
  stroke="currentColor"
  stroke-width="2"
  stroke-linecap="round"
  stroke-linejoin="round"
>
  <path
    fill-rule="evenodd"
    d="M28 35h1.5C37.508 35 44 28.508 44 20.5S37.508 6 29.5 6h-11C10.492 6 4 12.492 4 20.5s5 17 21.5 21l2.5.5zm-2 4.56V33h3.5C36.404 33 42 27.404 42 20.5S36.404 8 29.5 8h-11C11.596 8 6 13.596 6 20.5c0 3.57 1.106 7.334 4.061 10.679 2.967 3.357 7.924 6.435 15.871 8.368z"
    clip-rule="evenodd"
  />
  <path d="M19 18h10v9H19z" />
  <path
    fill-rule="evenodd"
    d="M25.067 14.769c-.226-.19-.597-.352-1.067-.352s-.841.161-1.067.352c-.222.187-.266.357-.266.46v2.688h2.666v-2.688c0-.103-.044-.273-.266-.46M24 12.417c1.841 0 3.333 1.259 3.333 2.812v4.688h-6.666v-4.688c0-1.553 1.492-2.812 3.333-2.812"
    clip-rule="evenodd"
  />
</svg>
